icons-rebrand/svg/live-bold.svg

<svg width="32" height="32" viewBox="0 0 32 32" fill="none" xmlns="http://www.w3.org/2000/svg">
<path d="M7.55012 12.4H5.87012V19.6H11.0501V18.34H7.55012V12.4Z" fill="#0F0F0F"/>
<path d="M13.5267 12.4H11.8467V19.6H13.5267V12.4Z" fill="#0F0F0F"/>
<path d="M19.1175 12.4H20.7375L18.4375 19.6H16.4275L14.1275 12.4H15.8575L17.4775 18.29L19.1175 12.4Z" fill="#0F0F0F"/>
<path d="M25.9089 16.55V15.39H23.0189V13.63H26.1989V12.4H21.3389V19.6H26.1989V18.39H23.0189V16.55H25.9089Z" fill="#0F0F0F"/>
<path d="M7 5.99976H25C26.3256 6.00131 27.5965 6.5286 28.5338 7.46594C29.4712 8.40329 29.9984 9.67415 30 10.9998V20.9998C29.9984 22.3254 29.4712 23.5962 28.5338 24.5336C27.5965 25.4709 26.3256 25.9982 25 25.9998H7C5.6744 25.9982 4.40353 25.4709 3.46619 24.5336C2.52884 23.5962 2.00156 22.3254 2 20.9998V10.9998C2.00156 9.67415 2.52884 8.40329 3.46618 7.46594C4.40353 6.5286 5.6744 6.00131 7 5.99976ZM27.1204 23.1201C27.6828 22.5577 27.9991 21.7951 28 20.9998V10.9998C27.9991 10.2044 27.6828 9.44182 27.1204 8.87939C26.5579 8.31697 25.7954 8.00062 25 7.99976H7C6.20462 8.00062 5.44206 8.31697 4.87964 8.87939C4.31722 9.44182 4.00087 10.2044 4 10.9998V20.9998C4.00087 21.7951 4.31722 22.5577 4.87964 23.1201C5.44206 23.6825 6.20462 23.9989 7 23.9998H25C25.7954 23.9989 26.5579 23.6825 27.1204 23.1201Z" fill="#0F0F0F"/>
</svg>

<svg xmlns="http://www.w3.org/2000/svg" width="32" height="32" viewBox="0 0 32 32"><path fill-rule="evenodd" d="M7 6h18a5.006 5.006 0 0 1 5 5v10a5.006 5.006 0 0 1-5 5H7a5.006 5.006 0 0 1-5-5V11a5.006 5.006 0 0 1 5-5Zm20.12 17.12A3.003 3.003 0 0 0 28 21V11a3.004 3.004 0 0 0-3-3H7a3.003 3.003 0 0 0-3 3v10a3.003 3.003 0 0 0 3 3h18c.795-.001 1.558-.317 2.12-.88ZM7.55 12.4H5.87v7.2h5.18v-1.26h-3.5V12.4Zm5.977 0h-1.68v7.2h1.68v-7.2Zm5.59 0h1.62l-2.3 7.2h-2.01l-2.3-7.2h1.73l1.62 5.89 1.64-5.89Zm6.792 4.15v-1.16h-2.89v-1.76h3.18V12.4h-4.86v7.2h4.86v-1.21h-3.18v-1.84h2.89Z" clip-rule="evenodd"/></svg>
